Sources/FrostedUI/Resources/Icons.xcassets/list20.imageset/list-20.svg

<svg width="20" height="20" viewBox="0 0 20 20" fill="none" xmlns="http://www.w3.org/2000/svg" data-fui-icon="true">
  <path
    d="M16.0303 1C17.6703 1.00015 18.9999 2.32966 19 3.96973V16.0303C18.9999 17.6703 17.6703 18.9999 16.0303 19H3.96973C2.32966 18.9999 1.00015 17.6703 1 16.0303V3.96973C1.00015 2.32966 2.32966 1.00015 3.96973 1H16.0303ZM3.96973 2.5C3.15808 2.50015 2.50015 3.15808 2.5 3.96973V16.0303C2.50015 16.8419 3.15808 17.4999 3.96973 17.5H16.0303C16.8419 17.4999 17.4999 16.8419 17.5 16.0303V3.96973C17.4999 3.15808 16.8419 2.50015 16.0303 2.5H3.96973ZM6.30957 12.5596C6.99987 12.5596 7.55957 13.1193 7.55957 13.8096C7.55944 14.4998 6.99979 15.0595 6.30957 15.0596C5.6193 15.0596 5.0597 14.4998 5.05957 13.8096C5.05957 13.1192 5.61921 12.5596 6.30957 12.5596ZM13.25 13.0596C13.6642 13.0596 14 13.3954 14 13.8096C13.9999 14.2237 13.6641 14.5596 13.25 14.5596H9.75C9.33587 14.5596 9.00013 14.2237 9 13.8096C9 13.3954 9.33579 13.0596 9.75 13.0596H13.25ZM6.30957 8.55957C6.99987 8.55964 7.55957 9.11926 7.55957 9.80957C7.55944 10.4998 6.99979 11.0595 6.30957 11.0596C5.6193 11.0596 5.0597 10.4998 5.05957 9.80957C5.05957 9.11921 5.61921 8.55957 6.30957 8.55957ZM14.25 9.05957C14.6642 9.05957 15 9.39536 15 9.80957C14.9999 10.2237 14.6641 10.5596 14.25 10.5596H9.75C9.33587 10.5596 9.00013 10.2237 9 9.80957C9 9.39536 9.33579 9.05957 9.75 9.05957H14.25ZM6.30957 4.55957C6.99987 4.55964 7.55957 5.11926 7.55957 5.80957C7.55944 6.49977 6.99979 7.0595 6.30957 7.05957C5.6193 7.05957 5.0597 6.49981 5.05957 5.80957C5.05957 5.11921 5.61921 4.55957 6.30957 4.55957ZM15.25 5.05957C15.6642 5.05957 16 5.39536 16 5.80957C15.9999 6.22367 15.6641 6.55957 15.25 6.55957H9.75C9.33587 6.55957 9.00013 6.22367 9 5.80957C9 5.39536 9.33579 5.05957 9.75 5.05957H15.25Z"
    fill="currentColor"
  />
</svg>

<svg xmlns="http://www.w3.org/2000/svg" width="20" height="20" fill="none" data-fui-icon="true" viewBox="0 0 20 20"><path fill="currentColor" d="M16.03 1A2.97 2.97 0 0 1 19 3.97v12.06A2.97 2.97 0 0 1 16.03 19H3.97A2.97 2.97 0 0 1 1 16.03V3.97A2.97 2.97 0 0 1 3.97 1zM3.97 2.5A1.47 1.47 0 0 0 2.5 3.97v12.06c0 .812.658 1.47 1.47 1.47h12.06a1.47 1.47 0 0 0 1.47-1.47V3.97a1.47 1.47 0 0 0-1.47-1.47zm2.34 10.06a1.25 1.25 0 1 1 0 2.5 1.25 1.25 0 0 1 0-2.5m6.94.5a.75.75 0 0 1 0 1.5h-3.5a.75.75 0 0 1 0-1.5zm-6.94-4.5a1.25 1.25 0 1 1 0 2.5 1.25 1.25 0 0 1 0-2.5m7.94.5a.75.75 0 0 1 0 1.5h-4.5a.75.75 0 0 1 0-1.5zm-7.94-4.5a1.25 1.25 0 1 1 0 2.5 1.25 1.25 0 0 1 0-2.5m8.94.5a.75.75 0 0 1 0 1.5h-5.5a.75.75 0 0 1 0-1.5z"/></svg>
